X:1
T:Summer's Day Viola
T:Summer's Day Viola
L:1/8
M:4/4
K:C
V:1 alto nm="Viola" snm="Vla."
V:1
 z EEE EDEA | ED/D/- D6 | z DDD DCDG | DCB, C4 A,/B,/ | CCCC B,C- CA,/B,/ | CCCC C G2 C | D8 | z8 | %8
 G,FGd- d4 | z8 | C,A,DG- G4 | E,E,E,E, E,3 C,/D,/ | E,E,E,E, D, E,2 C,/D,/ | _E,E,E,E, F, G,2 D, | %14
 D,4 E2 F2 | G G2 G GFED | DE/C/- C2 z2 EF | G G2 G GFED | D2 E4 z C/D/ | E3 A, C4 | z6 CD | %21
 E3 A, C4 | z8 | z8 | z8 | z8 | z6 A,B, | CCDC B,2 E,G, | A,A,G,F, G,3 G, | G,F,F,_E, F,2 G,_A, | %30
 _B,_A,A,G, A,2 (3:2:2G_A/_B | c6 _A_B | c4 z cBc | d4 z GcB | c6 z2 | EAAA AGAd |[M:2/4] B2 Ac | %37
[M:4/4] c6 B2 | G2 A2 z4 | z2 G4 F2 | C2 D2 z4 | z8 | z8 | z8 | z8 | EDEA E4 | DCDG D3 A,/B,/ | %47
 C4 z4 | z6 AB | ccdc B2 EG | AAGF G3 G | c4 dcBA | e8 |] %53

